svg/file/clipboard_line.svg

<?xml version="1.0" encoding="UTF-8"?>
<svg width="24px" height="24px" viewBox="0 0 24 24" version="1.1" xmlns="http://www.w3.org/2000/svg" xmlns:xlink="http://www.w3.org/1999/xlink">
    <title>clipboard_line</title>
    <g id="页面-1" stroke="none" stroke-width="1" fill="none" fill-rule="evenodd">
        <g id="File" transform="translate(-192.000000, 0.000000)" fill-rule="nonzero">
            <g id="clipboard_line" transform="translate(192.000000, 0.000000)">
                 <path d="M24,0 L24,24 L0,24 L0,0 L24,0 Z M12.5934901,23.257841 L12.5819402,23.2595131 L12.5108777,23.2950439 L12.4918791,23.2987469 L12.4918791,23.2987469 L12.4767152,23.2950439 L12.4056548,23.2595131 C12.3958229,23.2563662 12.3870493,23.2590235 12.3821421,23.2649074 L12.3780323,23.275831 L12.360941,23.7031097 L12.3658947,23.7234994 L12.3769048,23.7357139 L12.4804777,23.8096931 L12.4953491,23.8136134 L12.4953491,23.8136134 L12.5071152,23.8096931 L12.6106902,23.7357139 L12.6232938,23.7196733 L12.6232938,23.7196733 L12.6266527,23.7031097 L12.609561,23.275831 C12.6075724,23.2657013 12.6010112,23.2592993 12.5934901,23.257841 L12.5934901,23.257841 Z M12.8583906,23.1452862 L12.8445485,23.1473072 L12.6598443,23.2396597 L12.6498822,23.2499052 L12.6498822,23.2499052 L12.6471943,23.2611114 L12.6650943,23.6906389 L12.6699349,23.7034178 L12.6699349,23.7034178 L12.678386,23.7104931 L12.8793402,23.8032389 C12.8914285,23.8068999 12.9022333,23.8029875 12.9078286,23.7952264 L12.9118235,23.7811639 L12.8776777,23.1665331 C12.8752882,23.1545897 12.8674102,23.1470016 12.8583906,23.1452862 L12.8583906,23.1452862 Z M12.1430473,23.1473072 C12.1332178,23.1423925 12.1221763,23.1452606 12.1156365,23.1525954 L12.1099173,23.1665331 L12.0757714,23.7811639 C12.0751323,23.7926639 12.0828099,23.8018602 12.0926481,23.8045676 L12.108256,23.8032389 L12.3092106,23.7104931 L12.3186497,23.7024347 L12.3186497,23.7024347 L12.3225043,23.6906389 L12.340401,23.2611114 L12.337245,23.2485176 L12.337245,23.2485176 L12.3277531,23.2396597 L12.1430473,23.1473072 Z" id="MingCute" fill-rule="nonzero"></path>
                <path d="M15,2 C15.6833538,2 16.286613,2.34270296 16.6473597,2.86561238 L16.7324,3 L18,3 C19.0543909,3 19.9181678,3.81587733 19.9945144,4.85073759 L20,5 L20,17 C20,19.6887316 17.8776708,21.8818169 15.2168878,21.9953804 L15,22 L6,22 C4.94563773,22 4.08183483,21.18415 4.00548573,20.1492661 L4,20 L4,5 C4,3.94563773 4.81587733,3.08183483 5.85073759,3.00548573 L6,3 L7.26756,3 C7.58676923,2.44818462 8.16205988,2.06303432 8.83092759,2.00704561 L9,2 L15,2 Z M7,5 L6,5 L6,20 L15,20 C16.6569,20 18,18.6569 18,17 L18,5 L17,5 C17,6.10457 16.1046,7 15,7 L9,7 C7.89543,7 7,6.10457 7,5 Z M12,14 C12.5523,14 13,14.4477 13,15 C13,15.51285 12.613973,15.9355092 12.1166239,15.9932725 L12,16 L9,16 C8.44772,16 8,15.5523 8,15 C8,14.48715 8.38604429,14.0644908 8.88337975,14.0067275 L9,14 L12,14 Z M15,10 C15.5523,10 16,10.4477 16,11 C16,11.5523 15.5523,12 15,12 L9,12 C8.44772,12 8,11.5523 8,11 C8,10.4477 8.44772,10 9,10 L15,10 Z M15,4 L9,4 L9,5 L15,5 L15,4 Z" id="形状" fill="#09244B"></path>
            </g>
        </g>
    </g>
</svg>

<svg xmlns="http://www.w3.org/2000/svg" width="24" height="24"><g fill="none" fill-rule="nonzero"><path d="M24 0v24H0V0h24ZM12.593 23.258l-.011.002-.071.035-.02.004-.014-.004-.071-.035c-.01-.004-.019-.001-.024.005l-.004.01-.017.428.005.02.01.013.104.074.015.004.012-.004.104-.074.012-.016.004-.017-.017-.427c-.002-.01-.009-.017-.017-.018Zm.265-.113-.013.002-.185.093-.01.01-.003.011.018.43.005.012.008.007.201.093c.012.004.023 0 .029-.008l.004-.014-.034-.614c-.003-.012-.01-.02-.02-.022Zm-.715.002a.023.023 0 0 0-.027.006l-.006.014-.034.614c0 .012.007.02.017.024l.015-.002.201-.093.01-.008.004-.011.017-.43-.003-.012-.01-.01-.184-.092Z"/><path fill="#09244B" d="M15 2c.683 0 1.287.343 1.647.866l.085.134H18a2 2 0 0 1 1.995 1.85L20 5v12a5 5 0 0 1-4.783 4.995L15 22H6a2 2 0 0 1-1.995-1.85L4 20V5a2 2 0 0 1 1.85-1.995L6 3h1.268a2 2 0 0 1 1.563-.993L9 2h6ZM7 5H6v15h9a3 3 0 0 0 3-3V5h-1a2 2 0 0 1-2 2H9a2 2 0 0 1-2-2Zm5 9a1 1 0 0 1 .117 1.993L12 16H9a1 1 0 0 1-.117-1.993L9 14h3Zm3-4a1 1 0 1 1 0 2H9a1 1 0 1 1 0-2h6Zm0-6H9v1h6V4Z"/></g></svg>
